X:0060
T:Johnie's Grey Breeks. for the Ger: Flute.
M:2/4
L:1/16
Q:1/4=84
I: :: (1) :| (2) |:
% D E ^F A B ^c d e ^f g a b d'
Z:Jack Campin * www.campin.me.uk * 2009
K:B Minor
    de |f2f2 (gf)(ed)| {c} B4    d3   A |F2ED D3  E |F2A2 A2
   (de)|f2f2 (af)(ed)| {c} B4    d3   A |F2ED D2 E2 |d2B2 B2:|
    d2 |A3 B  d3   e |({de}f4)  Te2  d2 |e2f2 a2(ba)|f2e2 e2
[1 (fa)|b2b2  d'b`af |     a2a2 (ba)(fe)|d3 b af`ef |d2B2 B2:|
[2 (fa)|b2d'b a2  ba |     f2af  eg``fe |d3 b af`ef |d2B2 B2|]
<end>
<start>
